X:146
T:The Fermoy Lasses
M:4/4
L:1/8
R:reel
K:G
BA|GE~E2 BE~E2|GE~E2 BcBA|GE~E2 BE~E2|AFDF AcBA|
GE~E2 BE~E2|GE~E2 BcBA|G2GF GBdB|AFDF AcBA::
G2BG dGBG|G2Bd efgd|G2BG dGBG|AFDF AcBA|
G2BG dGBG|G2Bd efg2|afge dedB|AFDF AcBA:|
